!!!!SEGMENT: pl-kk--kk-i-10--008-001_pekiel-bartlomiej--missa-kyrie.krn
!!!cenid: 16xx:1195
!!!COM: Pękiel, Bartłomiej
!!!COM-rismID: pe30105642
!!!CDT: <1633-~1670
!!!CNT: Polish
!!!OPR: Missa
!!!OTL: Kyrie
!!!OMV: 001
!!!PDT:
!!!AGN: Sacred; Mass
!!!YEC: Copyright 2022 Narodowy Instytut Fryderyka Chopina (https://polishscores.org)
!!!YEM: License CC-BY-4.0 (https://creativecommons.org/licenses/by/4.0)
!!!SMS-siglum: PL-Kk
!!!SMS-shelfmark: Kk.I.10
!!!SMS-shelfwork: 008-001 M
!!!SMS-variant:
!!!SMS-altvar:
!!!NIFC-rismSourceID: 1001151827
!!!NIFC-rismChildID: 1001153818
!!!NIFC-islandoraID: pl-kk:2434
!!!URL-pdf-islandora: https://repozytorium.nifc.pl/islandora/object/pl-kk%3A2434/datastream/PDF/view
!!!URL-scan: https://polish.musicsources.pl/pl/lokalizacje/galeria/rekopisy/5737 @EN{Scan on Polish Music Sources Website} @PL{Skany w portalu Dziedzictwo Muzyki Polskiej w otwartym dostępie}
!!!IIIF:
!!!ONB-nifc: UWAGA: części Mszy: 1. Kyrie, 2. Et in terra, 3. Patrem, 4. Sanctus, 5. Benedictus, 6. Agnus Dei. T1 (0015-0019), T2 (0065-0069), B (0114-0118).
!!!AIN: 1 bass 1 empty 1 tenor
!!!key:
**kern	**text	**kern	**text	**kern	**text
*part3	*	*part2	*	*part1	*
*staff3	*	*staff2	*	*staff1	*
*Ibass	*	*Itenor	*	*Iempty	*
*I"Bassus.	*	*I"2do Tenore	*	*I"Primus	*
*I'B	*	*I'T 2	*	*I'T 1	*
*clefF4	*	*clefC4	*	*clefC4	*
*k[]	*	*k[]	*	*k[]	*
*G:	*	*G:	*	*G:	*
*M2/1	*	*M2/1	*	*M2/1	*
*met(c|)	*	*met(c|)	*	*	*
=1-	=1-	=1-	=1-	=1-	=1-
*2\right	*	*2\right	*	*2\right	*
!	!	!LO:TX:b:t=4	!	!	!
*	*	*	*	*met(c|)	*
2.G\	Ky-	00r	.	2.d\	Ky-
4G\	-ri-	.	.	4d\	-ri-
2c\	-e	.	.	2e\	-e
2A\	.	.	.	2c\	e-
=2-	=2-	=2-	=2-	=2-	=2-
1.G	E-	.	.	2B\	-le-
.	.	.	.	4G/	.
.	.	.	.	4A/	.
.	.	.	.	4B\	.
.	.	.	.	4c\	.
2F\	.	.	.	1d\	.
=3-	=3-	=3-	=3-	=3-	=3-
1E	-ley-	2.G/	Ky-	.	.
!	!	!	!	!LO:TX:t=P:problem=♯ above	!
.	.	.	.	2c#X\	-i-
.	.	4G/	-ri-	.	.
1D	-son	2A/	-e	1d,<	-son
.	.	2F/	e-	.	.
=4-	=4-	=4-	=4-	=4-	=4-
*	*	*	*	*	*ij
2.AA/	Ky-	2E/	-lei-	1cny	Ky-
.	.	4C/	.	.	.
4BB/	.	4D/	.	.	.
4C/	.	4E/	.	2c\	-ri-
4D/	.	4F/	.	.	.
2E\	.	1G/	.	4B\	-e
.	.	.	.	8A/L	.
.	.	.	.	8G/J	.
!	!	!	!	!LO:LB:g=original	!
=5-	=5-	=5-	=5-	=5-	=5-
2.D/	.	.	.	2A/	.
.	.	2F#X/	.	4.d\	.
4D/	ri-	.	.	.	.
.	.	.	.	8d\	e-
2E\	-e	2.G/	.	2B\	-le-
!LO:LB:g=original	!	!	!	!	!
2C/	E-	.	.	2e\	-i-
.	.	4A/	.	.	.
!	!	!LO:LB:g=original	!	!	!
=6-	=6-	=6-	=6-	=6-	=6-
2BB/	.	1.B	.	0d	-son
*	*	*	*	*	*Xij
4GG/	.	.	.	.	.
4AA/	.	.	.	.	.
4BB/	.	.	.	.	.
4C/	.	.	.	.	.
1D\	.	2A/	.	.	.
=7-	=7-	=7-	=7-	=7-	=7-
.	.	1A	-son	1r	.
!LO:TX:a:t=P:problem=# below	!	!	!	!	!
2C#X/	-ley-	.	.	.	.
1D	-son	2r	.	2.A/	ky-
*	*	*	*ij	*	*
.	.	1d\	Ky-	.	.
.	.	.	.	4A/	-ri-
=8-	=8-	=8-	=8-	=8-	=8-
1rD	.	.	.	2B\	-e
.	.	2B\	-ri-	2G/	e-
1.D	.	4A/	-e	2F#X/	.
.	.	4G/	.	.	.
.	.	4F#X/	.	4D/	.
.	.	4G/	.	4E/	.
=9-	=9-	=9-	=9-	=9-	=9-
.	.	4A/	e-	4F#/	.
.	.	4B\	.	4G/	.
2AA/	.	2c\	-lei-	1A	.
2.E\	Ky-	1B	.	.	.
.	.	.	.	2.G/	-le-
4D/	-ri-	.	.	.	.
=10-	=10-	=10-	=10-	=10-	=10-
2Cny/	-e	1A	.	.	.
!	!	!	!	!LO:TX:t=P:problem=♯ below	!
.	.	.	.	8F#X/L	.
.	.	.	.	8E/J	-i-
2D/	e	.	.	2F#/	-son
2GG,</	.	2B\	.	1G	.
!LO:N:vis=8.	!	!	!	!	!
4.C/	Ky-	2e\	.	.	.
!LO:N:vis=16	!	!	!	!	!
8C/	-ri-	.	.	.	.
=11-	=11-	=11-	=11-	=11-	=11-
!	!	!	!	!LO:TX:b:t=4.	!
2F\	-e-	2c\	.	00r	.
2D/	.	2d\	.	.	.
2.A\	.	4c\	.	.	.
.	.	4d\	.	.	.
.	.	1e\	.	.	.
4B\	.	.	.	.	.
=12-	=12-	=12-	=12-	=12-	=12-
*custos:B	*	*	*	*	*
2c\	.	.	.	.	.
!LO:LB:g=original	!	!	!	!	!
2B\	.	2d\	.	.	.
1A	-ley-	1c	.	.	.
!	!	!LO:LB:g=original	!	!	!
=13-	=13-	=13-	=13-	=13-	=13-
*	*	*	*	*	*ij
1G	-son	2B\	.	2.d\	ky-
.	.	4.G/	.	.	.
*	*	*	*	*custos:e	*
.	.	.	.	4d\	-ri-
.	.	8G/	.	.	.
!	!	!	!	!LO:LB:g=original	!
0r	.	2c\	.	2e\	-e
.	.	2A/	.	2c\	e-
=14-	=14-	=14-	=14-	=14-	=14-
.	.	1G	-son	2B\	-le-
*	*	*	*Xij	*	*
.	.	.	.	4G/	.
.	.	.	.	4A/	.
1r	.	0rF	.	4B\	.
.	.	.	.	4c\	.
.	.	.	.	4d\	.
.	.	.	.	4c\	.
=15-	=15-	=15-	=15-	=15-	=15-
*	*ij	*	*	*	*
2.G\	Ky-	.	.	4B\	.
.	.	.	.	2c\	.
4G\	-ri-	.	.	4B\	.
2A\	-e-	1rA	.	2c\	.
2F\	.	.	.	2A/	.
=16-	=16-	=16-	=16-	=16-	=16-
2E\	.	4.G/	ky-	2B\	.
.	.	8G/	-ri-	.	.
4C/	.	2.c\	-e	4E/	.
!	!	!	!	!LO:TX:t=P:problem=♯ below	!
4D/	.	.	.	4F#X/	.
4E\	.	.	.	4G/	.
!LO:TX:t=P:problem=♯ above	!	!	!	!	!
4F#X\	.	8B\L	.	4A/	.
.	.	8A\J	.	.	.
4G\	.	2G/	.	4B\	.
!LO:TX:t=P:problem=♯ above	!	!	!	!	!
8F#X\L	.	.	.	4c\	.
8E\J	.	.	.	.	.
=17-	=17-	=17-	=17-	=17-	=17-
!	!	!LO:TX:t=P:problem=♯ below	!	!	!
0D	ley-	2F#X/	e-	4d\	.
.	.	.	.	4c\	.
.	.	1G	-le-	4B\	.
.	.	.	.	8A/L	.
.	.	.	.	8G/J	.
.	.	.	.	1A	-i-
.	.	2F#/	-i-	.	.
=18-	=18-	=18-	=18-	=18-	=18-
1GG;>	-son	1G;>	-son	1B;<	-son
*	*Xij	*	*	*	*Xij
!LO:LB:g=original	!	!	!	!LO:LB:g=original	!
=19-	=19-	=19-	=19-	=19-	=19-
*M2/1	*	*M2/1	*	*M2/1	*
*met(c)	*	*	*	*	*
!LO:TX:a:t=6	!	!	!	!	!
*	*	*met(c|)	*	*met(c)	*
00r	.	0r	.	1d	CHri-
.	.	.	.	2e\	-ſte
.	.	.	.	2c\	.
=20-	=20-	=20-	=20-	=20-	=20-
.	.	1G	CHri-	4d\	e-
.	.	.	.	4c\	.
.	.	.	.	4B\	.
.	.	.	.	8A\L	.
.	.	.	.	8B\J	.
.	.	2A/	-ſte	1c	.
.	.	2Fny/	.	.	.
!	!	!LO:LB:g=original	!	!	!
=21-	=21-	=21-	=21-	=21-	=21-
0r	.	4G/	e-	2B\	le-
.	.	4F/	.	.	.
.	.	4E/	.	1c	-i-
.	.	8D/L	.	.	.
.	.	8E/J	-le-	.	.
.	.	1F	-i-	.	.
.	.	.	.	2d\	-son
=22-	=22-	=22-	=22-	=22-	=22-
*	*	*	*	*	*ij
1C	CHri-	2C/	-son	4e\	CHri-
.	.	.	.	4d\	.
.	.	2r	.	4c\	.
.	.	.	.	4B\	.
*	*	*	*ij	*	*
2D/	-ſte	1d	CHri-	2A/	-ste
2BB/	.	.	.	2B\	e-
=23-	=23-	=23-	=23-	=23-	=23-
4C/	e-	2e\	-ſte	2G/	-le-
4BB/	.	.	.	.	.
4AA/	.	2c\	e-	2c\	-i-
8GG/L	.	.	.	.	.
8AA/J	.	.	.	.	.
*lig	*	*	*	*	*
1BB	.	4d\	.	1B	-son
.	.	4c\	.	.	.
.	.	4B\	.	.	.
.	.	8A\L	-le-	.	.
.	.	8B\J	.	.	.
=24-	=24-	=24-	=24-	=24-	=24-
1AA	-lei-	1c	-i-	2r	.
.	.	.	.	2A/	CHri-
*Xlig	*	*	*	*	*
1GG	-son	1B	-son	2B\	-ste
*	*	*	*Xij	*	*
!	!	!	!	!LO:LB:g=original	!
.	.	.	.	2G/	e-
=25-	=25-	=25-	=25-	=25-	=25-
*	*ij	*	*	*	*
1D	CHri-	0r	.	4A/	-le-
.	.	.	.	4G/	.
!	!	!	!	!LO:TX:t=P:problem=♯ below	!
.	.	.	.	4F#X/	.
.	.	.	.	8E/L	.
.	.	.	.	8F#/J	.
2E\	-ſte	.	.	2G/	.
2C/	e-	.	.	2E/	.
=26-	=26-	=26-	=26-	=26-	=26-
4D/	.	1r	.	2F#X/	.
4C/	.	.	.	.	.
4BB/	.	.	.	1G	.
8AA/L	.	.	.	.	.
8GG/J	.	.	.	.	.
1AA	-lei-	1A	CHri-	.	.
.	.	.	.	2F#/	-i-
!LO:LB:g=original	!	!	!	!	!
=27-	=27-	=27-	=27-	=27-	=27-
1GG	-son	2B\	-ſte	1G	-son
*	*Xij	*	*	*	*Xij
.	.	2G/	e-	.	.
00r	.	4A/	.	2r	.
.	.	4G/	.	.	.
.	.	4F#X/	.	2d\	CHri-
.	.	8E/L	.	.	.
*	*	*custos:G	*	*	*
.	.	8F#/J	.	.	.
!	!	!LO:LB:g=original	!	!	!
=28-	=28-	=28-	=28-	=28-	=28-
.	.	2G/	.	2e\	.
!	!	!	!	!LO:TX:t=P:problem=♯ above	!
.	.	2E/	-le-	2c#X\	-ſte
.	.	2F#X/	-i-	4d\	e-
.	.	.	.	4cny\	.
.	.	2G/	-son	4B\	.
.	.	.	.	8A\L	.
.	.	.	.	8B\J	.
=29-	=29-	=29-	=29-	=29-	=29-
*	*	*	*ij	*	*
.	.	4C/	CHri-	1c	.
.	.	4D/	-ſte	.	.
.	.	4E/	e-	.	.
.	.	4Fny/	.	.	.
0r	.	2G/	.	2B\	.
.	.	2F#X/	.	2A/	le-
=30-	=30-	=30-	=30-	=30-	=30-
.	.	2G/	le-	2B\	-i-
.	.	2E/	-i-	2G/	-son
*	*ij	*	*	*	*
!	!	!	!	!LO:LB:g=original	!
1D	CHri-	2D/	-son	4A/	e-
.	.	.	.	4G/	.
!	!	!	!	!LO:TX:t=P:problem=♯ below	!
.	.	4d\	CHri-	4F#X/	.
.	.	4c\	-ſte	8E/L	.
.	.	.	.	8F#/J	.
=31-	=31-	=31-	=31-	=31-	=31-
2E\	-ſte	4B\	e-	2G/	.
.	.	8A\L	.	.	.
.	.	8B\J	.	.	.
2C/	e-	4c\	.	4A/	.
.	.	4B\	.	4G/	.
4D/	.	2A\	.	4F#X/	.
4C/	.	.	.	8E/L	.
.	.	.	.	8F#/J	.
4BB/	.	2B\	.	2D/	.
8AA/L	.	.	.	.	.
8GG/J	.	.	.	.	.
=32-	=32-	=32-	=32-	=32-	=32-
!	!	!LO:TX:t=P:problem=♯ above	!	!	!
0AA	-lei-	2c#X\	.	4A/	.
.	.	.	.	4E/	.
.	.	1d	-le-	4.F#/	-le-
.	.	.	.	8G/	-i-
.	.	.	.	1A	-son
!	!	!LO:TX:t=P:problem=♯ above	!	!	!
.	.	2c#X\	-i-	.	.
=33-	=33-	=33-	=33-	=33-	=33-
1D;<	-son	1d;<	-son	1A;<	.
*	*Xij	*	*Xij	*	*
!	!	!LO:LB:g=original	!	!	!
=34-	=34-	=34-	=34-	=34-	=34-
*M2/1	*	*M2/1	*	*M2/1	*
*met(c)	*	*met(c)	*	*met(c|)	*
4.D/	Ky-	4.d\	Ky-	0r	.
8D/	-ri-	8d\	-ri-	.	.
8E\L	-e	8G/L	-e	.	.
!LO:TX:t=P:problem=♯ above	!	!	!	!	!
8F#X\	.	8A/	.	.	.
8G\	.	8B/	.	.	.
8E\J	.	8G/J	.	.	.
8F#\L	.	8A\L	e-	.	.
8G\J	.	8B\J	.	.	.
4A\	.	2cny\	le-	.	.
4D/	.	.	.	.	.
2G\	e-	4B\	.	.	.
=35-	=35-	=35-	=35-	=35-	=35-
.	.	2A/	-i-	4.d\	Ky-
*custos:E	*	*	*	*	*
4F#\	.	.	.	.	.
.	.	.	.	8d\	-ri-
!LO:PB:g=original	!	!	!	!	!
2E\	.	2G/	-son	8G/L	-e-
.	.	.	.	8A/	.
.	.	.	.	8B/	.
.	.	.	.	8G/J	.
!	!	!	!	!LO:PB:g=original	!
4D/	-lei-	1r	.	8A\L	.
.	.	.	.	8B\J	.
4AA/	-son	.	.	2c\	.
*	*ij	*	*	*	*
4.BB/	Ky-	.	.	.	.
.	.	.	.	4B\	-le-
8C/	-ri-	.	.	.	.
=36-	=36-	=36-	=36-	=36-	=36-
*	*	*	*ij	*	*
2D/	-e	4.A/	Ky-	2A\	-i-
.	.	8A/	-ri-	.	.
8GG/L	e-	8B\L	-e	2G/	-son
8AA/	.	8c\	.	.	.
8BB/	.	8d\	.	.	.
8GG/J	.	8B\J	.	.	.
8AA/L	.	8c\L	e-	2rF	.
8BB/J	.	8d\J	.	.	.
2C/	.	4e\	.	.	.
.	.	4d\	.	4r	.
*	*	*	*	*	*ij
4BB/	.	2G/	.	8.G/	Ky-
.	.	.	.	16G/	-ri-
=37-	=37-	=37-	=37-	=37-	=37-
2AA/	-lei-	.	.	8A\L	-e-
.	.	.	.	8B\	.
!	!	!LO:TX:t=P:problem=♯ below	!	!	!
.	.	4F#X/	.	8c\	.
.	.	.	.	8A\J	.
!	!	!LO:LB:g=original	!	!	!
2GG/	-son	4.G/	.	8B\L	.
*	*Xij	*	*	*	*
.	.	.	.	8c\J	.
.	.	.	.	2d\	.
.	.	8Fny/	.	.	.
!LO:TX:a:t=4	!	!	!	!	!
00r	.	2E/	.	.	.
!	!	!	!	!LO:TX:t=P:problem=♯ above	!
.	.	.	.	4c#X\	.
.	.	2D/	.	4.d\	.
.	.	.	.	8cny\	.
=38-	=38-	=38-	=38-	=38-	=38-
.	.	2E/	.	4B\	.
.	.	.	.	4.e\	.
.	.	4.F/	.	.	.
.	.	.	.	8A/	.
.	.	.	.	2d\	-le-
.	.	8G/	.	.	.
.	.	2A/	-lei-	.	.
!	!	!	!	!LO:TX:t=P:problem=♯ above	!
.	.	.	.	4c#X\	-i-
.	.	4D/	-son	4d,<\	-son
*	*	*	*Xij	*	*
.	.	8.D/	ky-	8d\	Ky-
.	.	.	.	8d\	-ri-
.	.	16D/	-ri-	.	.
!	!	!	!	!LO:LB:g=original	!
=39-	=39-	=39-	=39-	=39-	=39-
.	.	8E/L	-e	8G/L	-e-
!	!	!LO:TX:t=P:problem=♯ below	!	!	!
.	.	8F#X/	.	8A/	.
.	.	8G/	.	8B/	.
.	.	8E/J	.	8G/J	.
.	.	8F#X/L	.	8A\L	.
.	.	8G/J	e-	8B\J	.
.	.	4A/	.	2cny\	.
2r	.	4D/	.	.	.
.	.	2G/	.	4B\	-le-
4.D/	ky-	.	.	2A/	-i-
.	.	4F#X/	.	.	.
8D/	-ri-	.	.	.	.
=40-	=40-	=40-	=40-	=40-	=40-
8E\L	-e	8G/L	.	2G/	-son
*	*	*	*	*	*Xij
!LO:TX:a:t=P:problem=# above	!	!	!	!	!
8F#X\	.	8A/	.	.	.
8G\	.	8B/	.	.	.
8E\J	.	8G/J	.	.	.
8F#X\L	e-	8A\L	.	2r	.
8G\	.	8B\	.	.	.
8A\	ley-	8c\	.	.	.
8F#\J	.	8A\J	.	.	.
!LO:LB:g=original	!	!LO:LB:g=original	!	!LO:TX:b:t=3	!
4G\	-son	2B\	.	0r	.
*	*ij	*	*	*	*
8.GG/	ky-	.	.	.	.
16GG/	-ri-	.	.	.	.
8AA/L	-e	2A/	.	.	.
8BB/	.	.	.	.	.
8C/	.	.	.	.	.
8AA/J	.	.	.	.	.
=41-	=41-	=41-	=41-	=41-	=41-
8BB/L	e-	4G/	.	.	.
8C/	.	.	.	.	.
8D/	.	8F#/L	.	.	.
8E/J	.	8G/	.	.	.
8F#\L	.	8A/	.	.	.
8G\	.	8B/J	.	.	.
8A\	.	2c\	.	.	.
8G\J	.	.	.	.	.
4F#\	-ley-	.	.	1r	.
4G\	.	4B\	.	.	.
2C/	-son	4.c\	-le-	.	.
.	.	8B\	-i-	.	.
=42-	=42-	=42-	=42-	=42-	=42-
4.D/	ky-	2A/	-son	4.d\	ky-
8D/	-ri-	.	.	8d\	-ri-
8E\L	-e	2r	.	8G/L	-e-
8Fny\	.	.	.	8A/	.
8G\	.	.	.	8B/	.
8E\J	.	.	.	8G/J	.
8F#X\L	e-	1r	.	8A\L	.
8G\J	.	.	.	8B\J	.
2A\	.	.	.	2c\	-le-
2G\	.	.	.	4B\	-i-
=43-	=43-	=43-	=43-	=43-	=43-
*	*	*	*ij	*	*
.	.	4.d\	ky-	4A/	-son
*	*	*	*	*	*ij
4Fny\	.	.	.	8.D/	ky-
.	.	8d\	-ri-	.	.
.	.	.	.	16D/	-ri-
2E\	.	8G/L	-e	8E/L	-e-
!	!	!	!	!LO:TX:t=P:problem=♯ below	!
.	.	8A/	.	8F#X/	.
.	.	8B/	.	8G/	.
*	*	*	*	*custos:F	*
.	.	8G/J	.	8E/J	.
!	!	!	!	!LO:TX:t=P:problem=♯ below	!
!	!	!	!	!LO:LB:g=original	!
4D/	.	8A/L	e-	8F#X/L	.
.	.	8B/J	.	8G/	.
*custos:D	*	*	*	*	*
4C/	.	2c\	.	8A/	.
.	.	.	.	8G/J	.
!LO:LB:g=original	!	!	!	!LO:TX:t=P:problem=♯ below	!
2D/	.	.	.	4F#X/	.
.	.	4B\	.	4G/	.
=44-	=44-	=44-	=44-	=44-	=44-
!	!	!	!	!LO:TX:t=P:problem=♯ below	!
1D	-ley-	4A/	.	4F#X/	.
.	.	2G/	-le-	4B\	-le-
.	.	.	.	2A/	-i-
.	.	4F#X/	-i-	.	.
1GG;>	-son	1G;>	-son	1B;<	-son
*	*Xij	*	*Xij	*	*Xij
=-	=-	=-	=-	=-	=-
*-	*-	*-	*-	*-	*-
!!!system-decoration: [(s1,s2,s3)]
!!!RDF**kern: > = above
!!!RDF**kern: < = below
!!!EED: Antoni Szymański
!!!EEV: 2021-07-05
!!!ENC: Krzysztof Stępień
!!!END: 2021-06-24
